svgs/solid/naira-sign.svg

<svg xmlns="http://www.w3.org/2000/svg" viewBox="0 0 448 512"><!--! Font Awesome Free 7.2.0 by @fontawesome - https://fontawesome.com License - https://fontawesome.com/license/free (Icons: CC BY 4.0, Fonts: SIL OFL 1.1, Code: MIT License) Copyright 2026 Fonticons, Inc. --><path fill="currentColor" d="M122.6 46.3c-7.8-11.7-22.4-17-35.9-12.9S64 49.9 64 64l0 192-32 0c-13.3 0-24 10.7-24 24s10.7 24 24 24l32 0 0 144c0 17.7 14.3 32 32 32s32-14.3 32-32l0-144 89.5 0 107.8 161.8c7.8 11.7 22.4 17 35.9 12.9S384 462.1 384 448l0-144 32 0c13.3 0 24-10.7 24-24s-10.7-24-24-24l-32 0 0-192c0-17.7-14.3-32-32-32s-32 14.3-32 32l0 192-57.5 0-139.8-209.7zM294.5 304l25.5 0 0 38.3-25.5-38.3zM185.5 256l-57.5 0 0-86.3 57.5 86.3z"/></svg>

<svg xmlns="http://www.w3.org/2000/svg" viewBox="0 0 448 512"><!--! Font Awesome Free 6.5.2 by @fontawesome - https://fontawesome.com License - https://fontawesome.com/license/free (Icons: CC BY 4.0, Fonts: SIL OFL 1.1, Code: MIT License) Copyright 2024 Fonticons, Inc. --><path d="M122.6 46.3c-7.8-11.7-22.4-17-35.9-12.9S64 49.9 64 64V256H32c-17.7 0-32 14.3-32 32s14.3 32 32 32H64V448c0 17.7 14.3 32 32 32s32-14.3 32-32V320H228.2l97.2 145.8c7.8 11.7 22.4 17 35.9 12.9s22.7-16.5 22.7-30.6V320h32c17.7 0 32-14.3 32-32s-14.3-32-32-32H384V64c0-17.7-14.3-32-32-32s-32 14.3-32 32V256H262.5L122.6 46.3zM305.1 320H320v22.3L305.1 320zM185.5 256H128V169.7L185.5 256z"/></svg>
